app/images/provide-fly.svg

<svg width="50" height="50" viewBox="0 0 50 50" fill="none" xmlns="http://www.w3.org/2000/svg">
<path d="M48.4374 30.4593C45.7268 31.1162 43.5047 32.3802 41.6311 34.1837C40.2576 31.844 38.3177 29.6006 36.5914 27.5809C35.4944 26.2971 34.1144 24.4034 32.2937 24.0383C32.5038 23.8843 32.6706 23.6554 32.7542 23.341C32.9956 22.4391 33.398 21.6092 34.0096 20.8783C34.3091 20.5205 34.6849 20.2144 35.049 19.9198C35.2158 19.7849 35.4216 19.7119 35.5775 19.5627C35.7809 19.3681 35.8816 19.0719 36.0179 18.8287C37.8753 16.8683 39.4758 14.1689 40.8906 12.189C42.8077 9.50622 45.464 5.37464 43.3043 2.17429C40.9598 -1.30018 35.9137 0.0291175 32.9723 1.7557C28.4803 4.39247 25.2937 8.72569 22.2679 12.7798C22.2231 12.6143 22.1432 12.4499 22.017 12.2937C18.7372 8.23356 6.83724 -2.70717 1.48288 3.97778C-3.78052 10.5487 6.1361 19.8111 12.9775 22.1946C8.06055 24.9834 4.53479 30.7264 2.91257 35.7682C2.05122 38.4452 1.64417 44.9603 5.303 46.1737C8.60691 47.2696 11.9475 43.4912 13.8603 41.4899C16.9442 38.2631 19.5342 34.6449 22.2882 31.1642C22.3358 31.357 22.411 31.5675 22.5508 31.8234C23.4372 33.4463 24.8603 34.5976 26.3557 35.6973C28.3087 37.1336 30.5137 38.2688 32.6975 39.3448C33.9248 39.9494 35.3847 40.8253 36.8323 41.0932C34.7446 43.3283 33.5832 45.634 34.015 48.8177C34.1407 49.7451 34.9741 50.2756 35.8993 49.8524C39.4932 48.2084 42.4221 44.9389 44.7892 41.9678C47.156 38.9969 49.7902 35.4663 49.9985 31.5971C50.0406 30.8127 49.1814 30.2787 48.4374 30.4593ZM42.2453 41.1961C40.6095 43.17 38.6878 45.2687 36.4486 46.7523C36.5857 44.7758 37.3075 42.979 38.3141 41.0882C38.3234 41.0711 38.3234 41.0537 38.3304 41.0365C38.8675 40.7406 39.015 40.0354 38.5563 39.5202C37.7341 38.5954 36.4429 38.1997 35.3192 37.6954C33.5485 36.8998 31.8233 36.0176 30.1406 35.0638C28.4486 34.1045 26.8562 32.996 25.4621 31.666C25.0586 31.2812 23.3959 29.6871 23.3228 29.1368C23.2903 28.8917 22.9552 28.8005 22.8349 29.0159C22.2999 28.5054 21.2433 28.3606 20.6345 29.117C16.768 33.9205 13.0823 40.5049 7.4178 43.5624C4.10819 45.3487 5.45017 36.9416 5.87487 35.6973C7.51149 30.9002 11.0123 26.4971 14.5464 22.8403C14.6149 22.7693 14.6635 22.6942 14.6955 22.6178C15.5417 22.569 16.0867 21.3852 15.1683 20.989C10.5265 18.987 -0.0204079 11.4778 3.3704 5.78985C6.64797 0.291288 17.9449 11.6659 20.2362 13.9982C20.763 14.5342 21.3832 14.4646 21.8084 14.1208C22.0542 14.4352 22.5799 14.5864 22.9191 14.2455C25.7926 11.3586 28.6316 8.4791 31.7557 5.8335C33.4407 4.40676 35.3144 3.15931 37.512 2.61366C39.7004 2.07036 41.6922 3.47656 41.2919 5.58588C40.695 8.73166 37.9923 11.6901 36.0345 14.1629C35.1495 15.2807 33.2577 16.9457 32.9261 18.5637C32.7368 18.6848 32.5495 18.8136 32.361 18.9579C31.18 19.86 30.4748 21.2709 30.0681 22.6316C29.7243 23.7814 30.937 24.4759 31.8605 24.2384C31.8749 24.4016 32.1226 24.4642 32.2309 24.3151C31.4209 25.4261 34.1554 28.5366 34.841 29.5327C36.4407 31.8567 38.0806 34.2586 39.8348 36.4791C39.8125 37.3508 41.1703 38.1225 41.888 37.3155C43.4675 35.538 45.1023 34.1889 47.213 33.3359C46.3693 36.2276 44.0652 39.0005 42.2453 41.1961Z" fill="#00B2A0"/>
</svg>

<svg width="50" height="50" fill="none" xmlns="http://www.w3.org/2000/svg"><path d="M48.437 30.46c-2.71.656-4.932 1.92-6.806 3.724-1.373-2.34-3.313-4.583-5.04-6.603-1.097-1.284-2.477-3.178-4.297-3.543.21-.154.377-.383.46-.697a6.327 6.327 0 011.256-2.463c.3-.358.675-.664 1.039-.958.167-.135.373-.208.529-.357.203-.195.304-.491.44-.734 1.857-1.96 3.458-4.66 4.873-6.64 1.917-2.683 4.573-6.814 2.413-10.015C40.96-1.3 35.914.03 32.972 1.756c-4.492 2.636-7.678 6.97-10.704 11.024a1.315 1.315 0 00-.251-.486c-3.28-4.06-15.18-15.001-20.534-8.316-5.264 6.57 4.653 15.833 11.494 18.217-4.916 2.788-8.442 8.531-10.064 13.573-.862 2.677-1.269 9.192 2.39 10.406 3.304 1.096 6.644-2.683 8.557-4.684 3.084-3.227 5.674-6.845 8.428-10.326.048.193.123.403.263.66.886 1.622 2.31 2.774 3.805 3.873 1.953 1.437 4.158 2.572 6.341 3.648 1.228.604 2.688 1.48 4.135 1.748-2.087 2.235-3.249 4.541-2.817 7.725.126.927.96 1.458 1.884 1.034 3.594-1.644 6.523-4.913 8.89-7.884 2.367-2.971 5.001-6.502 5.21-10.37.042-.785-.818-1.32-1.562-1.139zm-6.192 10.736c-1.636 1.974-3.557 4.073-5.796 5.556.137-1.976.858-3.773 1.865-5.664.01-.017.01-.034.016-.052.538-.295.685-1 .226-1.516-.822-.925-2.113-1.32-3.237-1.825a62.21 62.21 0 01-5.178-2.631c-1.692-.96-3.285-2.068-4.679-3.398-.403-.385-2.066-1.979-2.14-2.53-.032-.244-.367-.335-.487-.12-.535-.51-1.592-.655-2.2.101-3.867 4.803-7.553 11.388-13.217 14.445-3.31 1.787-1.968-6.62-1.543-7.865 1.636-4.797 5.137-9.2 8.671-12.857a.722.722 0 00.15-.222c.846-.049 1.39-1.233.472-1.629C10.527 18.987-.02 11.478 3.37 5.789 6.648.292 17.945 11.667 20.236 14c.527.535 1.147.466 1.572.122.246.314.772.465 1.111.124 2.874-2.886 5.713-5.766 8.837-8.411 1.685-1.427 3.558-2.675 5.756-3.22 2.188-.544 4.18.863 3.78 2.972-.597 3.146-3.3 6.104-5.258 8.577-.884 1.118-2.776 2.783-3.108 4.4-.19.122-.377.25-.565.395-1.181.902-1.886 2.313-2.293 3.674-.344 1.15.869 1.844 1.792 1.606.015.164.263.226.37.077-.81 1.111 1.925 4.222 2.611 5.218 1.6 2.324 3.24 4.726 4.994 6.946-.023.872 1.335 1.644 2.053.837 1.58-1.778 3.214-3.127 5.325-3.98-.844 2.892-3.148 5.665-4.968 7.86z" fill="#00B2A0"/></svg>
